icons/outline/scoreboard.svg

<!--
tags: [score, display, game, match, points, results, ranking, tally, totals]
category: Sport
version: "2.17"
unicode: "fa6b"
-->
<svg
  xmlns="http://www.w3.org/2000/svg"
  width="24"
  height="24"
  viewBox="0 0 24 24"
  fill="none"
  stroke="currentColor"
  stroke-width="2"
  stroke-linecap="round"
  stroke-linejoin="round"
>
  <path d="M3 5m0 2a2 2 0 0 1 2 -2h14a2 2 0 0 1 2 2v10a2 2 0 0 1 -2 2h-14a2 2 0 0 1 -2 -2zm9 -2v2m0 3v1m0 3v1m0 3v1m-5 -16v2m10 -2v2m-2 5.5v3a1.5 1.5 0 0 0 3 0v-3a1.5 1.5 0 0 0 -3 0zm-9 -1.5h1.5a1.5 1.5 0 0 1 0 3h-.5h.5a1.5 1.5 0 0 1 0 3h-1.5" />
</svg>

<!--
tags: [score, display, game, match, points, results, ranking, tally, totals]
category: Sport
version: "2.17"
unicode: "fa6b"
-->
<svg
  xmlns="http://www.w3.org/2000/svg"
  width="24"
  height="24"
  viewBox="0 0 24 24"
  fill="none"
  stroke="currentColor"
  stroke-width="2"
  stroke-linecap="round"
  stroke-linejoin="round"
>
    <path d="M3 5m0 2a2 2 0 0 1 2 -2h14a2 2 0 0 1 2 2v10a2 2 0 0 1 -2 2h-14a2 2 0 0 1 -2 -2zM12 5v2M12 10v1M12 14v1M12 18v1M7 3v2M17 3v2M15 10.5v3a1.5 1.5 0 0 0 3 0v-3a1.5 1.5 0 0 0 -3 0zM6 9h1.5a1.5 1.5 0 0 1 0 3h-.5h.5a1.5 1.5 0 0 1 0 3h-1.5" />
</svg>
